!!!!SEGMENT: pl-kozmzk--mzk-m-33_szymanowska-maria-le-depart-romance.krn
!!!id: 18xx:2796
!!!COM: Walczyński, Franciszek
!!!OTL: Cantantibus organis – Maestoso
!!!PDT: 1898
!!!SMS-siglum: PL-KOZmzk
!!!SMS-shelfmark: mzk/m/346
!!!NIFC-rismID: 1001109053
!!!URL-scan: https://repozytorium.nifc.pl/islandora/object/pl-kozmzk%3A7453/datastream/PDF/view
!!!ONB-nifc:
!!!SMS-variant:
!!!SMS-altvar:
**kern	**kern	**dynam
*part2	*part1	*part1
*staff2	*staff1	*
*I"Organo	*I"Organo	*
*I'Org.	*I'Org.	*
*clefF4	*clefG2	*
*k[]	*k[]	*
*M4/4	*M4/4	*
*met(c)	*met(c)	*
=1	=1	=1
*^	*^	*
(4E/	([1C	(4c/	4G\	.
4F/	.	4d/	4A-X\	.
4E/	.	4c/	4G\	.
4F/	.	4d/	4B\	.
=2	=2	=2	=2	=2
2G/	2C\]	1e)	(2c\	.
2G#X/)	2BB\)	.	2d\)	.
=3	=3	=3	=3	=3
(1A	(4AA\	(4e/	(1c	.
.	4D\	4f/	.	.
.	4AA\	4e/	.	.
.	4D\	4f#X/	.	.
=4	=4	=4	=4	=4
2c/	2.G\	1g)	1d)	.
2B/)	.	.	.	.
.	4F\)	.	.	.
=5	=5	=5	=5	=5
(4c/	(4E\	(4g/	4g\	<
4B/	4D\	4g#X/	4fn\	.
4A/	4C\	4a/	2e\	.
4G#X/	4BB\	4b/	.	.
=6	=6	=6	=6	=6
2A/	4AA\	4cc/	2e\	.
.	4GG\	4cc#X/	.	.
4d/	4FF\	4dd/	2a\	.
4e-X/)	4FF#X\)	4ccn/)	.	.
=7	=7	=7	=7	=7
(4d/	1GG	1b	(4g\	[ ff
4fn/	.	.	4a\	.
4en/	.	.	4g\	.
4d/	.	.	4f\	.
=8	=8	=8	=8	=8
4f/	1C;	1cc;	1g)	>
8e/L	.	.	.	.
8d/J	.	.	.	.
2e;/)	.	.	.	.
!!linebreak:original
=9	=9	=9	=9	=9
[1c	(2B-X\	(4cc/	2e\	] pp
.	.	8dd/L	.	.
.	.	8cc/J	.	.
.	2A\	4ff/	2f\	.
.	.	[4cc/	.	.
=10	=10	=10	=10	=10
1c]	2G\	4cc/]	2e\	.
.	.	4b-X/	.	.
.	2F\	2a/	2f\	.
=11	=11	=11	=11	=11
2c#X/	2E\	4a/	2g\	.
.	.	8b-X/L	.	.
.	.	8a/J	.	.
[2A/	2D\	4dd/	2f\	.
.	.	4a/	.	.
=12	=12	=12	=12	=12
1A]	2C#X\	4a/	2e\	.
.	.	4g/	.	.
.	2D\)	2f/)	2d\	.
=13	=13	=13	=13	=13
(4B/	(2G\	(4g/	1f	??? <
8c/L	.	8a/L	.	.
8d/J	.	8bn/J	.	.
2B/	4G\	4ee/	.	.
.	4G#X\	4dd/	.	.
=14	=14	=14	=14	=14
4c/	4A\	4cc/	4e\	[ f
4A/	4F\	8dd/L	4a\	.
.	.	8dd#X/J	.	.
2B/)	2E\	2ee/)	2g#X\	.
=15	=15	=15	=15	=15
2B/	2D\	(2ff/	2.gn\	p
4d/	4F\	4dd/	.	.
4e-X/	4F#X\	4cc/	[4a\	.
=16	=16	=16	=16	=16
1d	1G)	2cc/	2a\]	>
.	.	2b/)	4g\	.
.	.	.	4f\	.
*	*	*v	*v	*
=17	=17	=17	=17
(1c	1C	(4e/ 4g 4cc	] ff
.	.	4f/ 4a-X 4dd	.
.	.	4e/ 4g 4cc	.
.	.	(4f/) 4b 4dd	.
*v	*v	*	*
!!linebreak:original
=18	=18	=18
4C\) 4c	1g) 1cc 1ee	.
4BB^\ 4B	.	.
2BB-X^\ 2B-X	.	.
=19	=19	=19
4AA^\ 4A	(2f/ 2cc 2ff	.
4AA-X^\ 4A-X	.	.
4GG^/ 4G	4g/ 4cc 4ee	.
4GG#X^/ 4G#X	4f/ 4b 4dd	.
=20	=20	=20
*	*^	*
4AA^\ 4A	4cc/	2e\ [2a	.
4GGn^/ 4Gn	4cc#X/	.	.
4FF^/ 4F	4dd/	2d\ 2a]	.
4FF#X^/ 4F#X	4cc#/	.	.
=21	=21	=21	=21
4GG^/ 4G	2b/	2d\ [2g	.
4FFn^/ 4Fn	.	.	.
4EE^/ 4E	4cc/	2c\ 2g]	.
4CC^/ 4C	4b-X/)	.	.
*	*v	*v	*
=22	=22	=22
4FF^/ 4F	4c/ 4f 4a	.
4DD^/ 4D	4f^/ 4a 4dd	.
4CC#X^/ 4C#X	4b-X^\ 4ee 4gg	.
8DD^/L 8D	4a^\ 4dd 4ff	.
8FF^/J 8F	.	.
=23	=23	=23
*	*^	*
1GG 1G	(2cc/ 2ee	2.g\	>
.	2bn/ 2dd	.	.
.	.	4f\	.
*	*v	*v	*
=24	=24	=24
1CC 1C	1e) 1g 1cc	]]
=25	=25	=25
*^	*	*
(4E/ 4G	[1CC [1C	(4c/	pp <
4F/ 4A-X	.	4d/	.
4E/ 4G	.	4c/	.
!	!	!LO:TX:b:t=rit.	!
8F/L 8An	.	4d/	[[
8B/J	.	.	.
=26	=26	=26	=26
1G) 1c	1CC;] 1C]	1e;)	>]
*v	*v	*	*
==	==	==
*-	*-	*-
!!!system-decoration: [(s1,s2)]
!!!ENC: Andrzej Gręziak
!!!END: 2021-07-27
